; generated by PrusaSlicer 2.1.0+win64 on 2020-02-22 at 20:53:02 UTC

; 

; external perimeters extrusion width = 0.45mm
; perimeters extrusion width = 0.45mm
; infill extrusion width = 0.45mm
; solid infill extrusion width = 0.45mm
; top infill extrusion width = 0.40mm
; first layer extrusion width = 0.42mm

M73 P0 R165
M73 Q0 S166
M201 X1000 Y1000 Z1000 E5000 ; sets maximum accelerations, mm/sec^2
M203 X200 Y200 Z12 E120 ; sets maximum feedrates, mm/sec
M204 P1250 R1250 T1250 ; sets acceleration (P, T) and retract acceleration (R), mm/sec^2
M205 X8.00 Y8.00 Z0.40 E1.50 ; sets the jerk limits, mm/sec
M205 S0 T0 ; sets the minimum extruding and travel feed rate, mm/sec
M107
M862.3 P "MK3SMMU2S" ; printer model check
M862.1 P0.4 ; nozzle diameter check
M115 U3.8.1 ; tell printer latest fw version
G90 ; use absolute coordinates
M83 ; extruder relative mode
M104 S215 ; set extruder temp
M140 S60 ; set bed temp
Tx
M190 S60 ; wait for bed temp
M109 S215 ; wait for extruder temp
G28 W ; home all without mesh bed level
G80 ; mesh bed leveling

G21 ; set units to millimeters

;go outside print area
G1 Y-3.0 F1000.0
G1 Z0.4 F1000.0
; select extruder
Tc
; purge line
G1 X55.0 F2000.0
G1 Z0.3 F1000.0
G92 E0.0
G1 X240.0 E25.0 F2200.0
M73 Q0 S166
M73 P0 R164
G1 Y-2.0 F1000.0
G1 X55.0 E25 F1400.0
G1 Z0.20 F1000.0
G1 X5.0 E4.0 F1000.0

M221 S95
G92 E0.0
G21 ; set units to millimeters
G90 ; use absolute coordinates
M83 ; use relative distances for extrusion
M900 K30 ; Filament gcode
;BEFORE_LAYER_CHANGE
G92 E0.0
;0.2


G1 E-0.80000 F2100.00000
G1 Z0.600 F10800.000
;AFTER_LAYER_CHANGE
;0.2
G1 X74.734 Y54.136
G1 Z0.200
G1 E0.80000 F2100.00000
M204 S1000
G1 F1200
G1 X75.507 Y53.920 E0.02518
G1 X162.574 Y46.369 E2.74017
G1 X167.652 Y46.361 E0.15921
G1 X168.159 Y46.422 E0.01601
G1 X168.638 Y46.598 E0.01601
G1 X183.781 Y54.547 E0.53625
G1 X184.179 Y54.837 E0.01544
G1 X184.504 Y55.212 E0.01555
G1 X184.737 Y55.650 E0.01555
G1 X184.865 Y56.129 E0.01555
G1 X188.111 Y98.186 E1.32259
G1 X188.114 Y120.187 E0.68985
G1 X185.105 Y158.572 E1.20722
G1 X184.925 Y159.266 E0.02247
G1 X184.532 Y159.861 E0.02236
G1 X183.802 Y160.381 E0.02810
G1 X182.928 Y160.564 E0.02799
G1 X64.064 Y160.564 E3.72691
G1 X63.271 Y160.411 E0.02529
G1 X62.588 Y159.982 E0.02529
G1 X62.081 Y159.278 E0.02721
G1 X61.887 Y158.436 E0.02709
G1 X61.888 Y135.086 E0.73213
G1 X64.899 Y98.056 E1.16487
G1 X73.559 Y55.647 E1.35714
G1 X73.756 Y55.095 E0.01839
G1 X74.093 Y54.615 E0.01839
G1 X74.686 Y54.172 E0.02319
G1 F8640
G1 X75.507 Y53.920 E-0.19844
G1 X77.930 Y53.710 E-0.56156
G1 E-0.04000 F2100.00000
G1 Z0.800 F10800.000
G1 X64.987 Y136.149
G1 Z0.200
G1 E0.80000 F2100.00000
G1 F1200
G1 X78.904 Y137.055 E0.43729
G1 X93.397 Y137.335 E0.45448
G1 X107.888 Y136.955 E0.45452
G1 X122.284 Y135.920 E0.45254
G1 X129.961 Y136.622 E0.24172
G1 X137.709 Y137.129 E0.24346
G1 X145.471 Y137.437 E0.24355
G1 X161.529 Y137.437 E0.50349
G1 X168.554 Y137.167 E0.22042
G1 X175.244 Y136.754 E0.21017
G1 X182.013 Y136.182 E0.21300
G1 X182.013 Y157.463 E0.66724
G1 X64.987 Y157.463 E3.66927
G1 X64.987 Y136.209 E0.66641
G1 X64.610 Y135.747 F10800.000
G1 F1200
G1 X78.920 Y136.678 E0.44964
G1 X93.395 Y136.958 E0.45394
G1 X107.869 Y136.579 E0.45398
G1 X122.287 Y135.542 E0.45324
G1 X129.990 Y136.246 E0.24253
G1 X137.729 Y136.753 E0.24316
G1 X145.478 Y137.060 E0.24316
G1 X161.522 Y137.060 E0.50303
G1 X168.535 Y136.790 E0.22005
G1 X175.216 Y136.378 E0.20989
G1 X182.390 Y135.772 E0.22573
G1 X182.390 Y157.840 E0.69193
G1 X64.610 Y157.840 E3.69292
M73 Q0 S165
M73 P0 R163
G1 X64.610 Y135.807 E0.69085
G1 X65.008 Y135.789 F10800.000
G1 F8640
G1 X67.895 Y136.007 E-0.76000
G1 E-0.04000 F2100.00000
G1 Z0.800 F10800.000
G1 X65.864 Y157.350
G1 Z0.200
G1 E0.80000 F2100.00000
G1 F1200
G1 X65.270 Y156.755 E0.02643
G1 X65.270 Y156.221 E0.01680
G1 X66.229 Y157.180 E0.04265
G1 X66.764 Y157.180 E0.01680
G1 X65.270 Y155.686 E0.06641
G1 X65.270 Y155.152 E0.01680
G1 X67.298 Y157.180 E0.09018
G1 X67.833 Y157.180 E0.01680
G1 X65.270 Y154.617 E0.11394
G1 X65.270 Y154.082 E0.01680
G1 X68.368 Y157.180 E0.13770
G1 X68.902 Y157.180 E0.01680
G1 X65.270 Y153.548 E0.16146
G1 X65.270 Y153.013 E0.01680
G1 X69.437 Y157.180 E0.18523
G1 X69.971 Y157.180 E0.01680
G1 X65.270 Y152.479 E0.20899
G1 X65.270 Y151.944 E0.01680
G1 X70.506 Y157.180 E0.23275
G1 X71.041 Y157.180 E0.01680
G1 X65.270 Y151.409 E0.25651
G1 X65.270 Y150.875 E0.01680
G1 X71.575 Y157.180 E0.28027
G1 X72.110 Y157.180 E0.01680
G1 X65.270 Y150.340 E0.30404
G1 X65.270 Y149.806 E0.01680
G1 X72.644 Y157.180 E0.32780
G1 X73.179 Y157.180 E0.01680
G1 X65.270 Y149.271 E0.35156
G1 X65.270 Y148.737 E0.01680
G1 X73.713 Y157.180 E0.37532
G1 X74.248 Y157.180 E0.01680
G1 X65.270 Y148.202 E0.39909
G1 X65.270 Y147.667 E0.01680
G1 X74.783 Y157.180 E0.42285
G1 X75.317 Y157.180 E0.01680
G1 X65.270 Y147.133 E0.44661
G1 X65.270 Y146.598 E0.01680
G1 X75.852 Y157.180 E0.47037
G1 X76.386 Y157.180 E0.01680
G1 X65.270 Y146.064 E0.49413
G1 X65.270 Y145.529 E0.01680
G1 X76.921 Y157.180 E0.51790
G1 X77.455 Y157.180 E0.01680
G1 X65.270 Y144.995 E0.54166
G1 X65.270 Y144.460 E0.01680
G1 X77.990 Y157.180 E0.56542
G1 X78.525 Y157.180 E0.01680
G1 X65.270 Y143.925 E0.58918
G1 X65.270 Y143.391 E0.01680
G1 X79.059 Y157.180 E0.61295
G1 X79.594 Y157.180 E0.01680
G1 X65.270 Y142.856 E0.63671
G1 X65.270 Y142.322 E0.01680
G1 X80.128 Y157.180 E0.66047
G1 X80.663 Y157.180 E0.01680
G1 X65.270 Y141.787 E0.68423
G1 X65.270 Y141.253 E0.01680
G1 X81.198 Y157.180 E0.70799
G1 X81.732 Y157.180 E0.01680
G1 X65.270 Y140.718 E0.73176
G1 X65.270 Y140.183 E0.01680
G1 X82.267 Y157.180 E0.75552
G1 X82.801 Y157.180 E0.01680
G1 X65.270 Y139.649 E0.77928
G1 X65.270 Y139.114 E0.01680
G1 X83.336 Y157.180 E0.80304
G1 X83.870 Y157.180 E0.01680
G1 X65.270 Y138.580 E0.82680
G1 X65.270 Y138.045 E0.01680
G1 X84.405 Y157.180 E0.85057
G1 X84.940 Y157.180 E0.01680
G1 X65.270 Y137.510 E0.87433
G1 X65.270 Y136.976 E0.01680
G1 X85.474 Y157.180 E0.89809
G1 X86.009 Y157.180 E0.01680
G1 X65.280 Y136.451 E0.92140
G1 X65.852 Y136.489 E0.01801
G1 X86.543 Y157.180 E0.91975
G1 X87.078 Y157.180 E0.01680
G1 X66.424 Y136.526 E0.91809
G1 X66.995 Y136.563 E0.01801
G1 X87.612 Y157.180 E0.91644
G1 X88.147 Y157.180 E0.01680
G1 X67.567 Y136.600 E0.91478
G1 X68.139 Y136.638 E0.01801
G1 X88.682 Y157.180 E0.91313
G1 X89.216 Y157.180 E0.01680
G1 X68.711 Y136.675 E0.91147
G1 X69.283 Y136.712 E0.01801
G1 X89.751 Y157.180 E0.90982
G1 X90.285 Y157.180 E0.01680
G1 X69.854 Y136.749 E0.90816
G1 X70.426 Y136.787 E0.01801
G1 X90.820 Y157.180 E0.90651
G1 X91.355 Y157.180 E0.01680
G1 X70.998 Y136.824 E0.90485
G1 X71.570 Y136.861 E0.01801
G1 X91.889 Y157.180 E0.90320
G1 X92.424 Y157.180 E0.01680
G1 X72.142 Y136.898 E0.90154
G1 X72.713 Y136.935 E0.01801
G1 X92.958 Y157.180 E0.89989
G1 X93.493 Y157.180 E0.01680
G1 X73.285 Y136.973 E0.89823
G1 X73.857 Y137.010 E0.01801
G1 X94.027 Y157.180 E0.89658
G1 X94.562 Y157.180 E0.01680
G1 X74.429 Y137.047 E0.89492
G1 X75.001 Y137.084 E0.01801
G1 X95.097 Y157.180 E0.89327
G1 X95.631 Y157.180 E0.01680
G1 X75.573 Y137.122 E0.89161
G1 X76.144 Y137.159 E0.01801
G1 X96.166 Y157.180 E0.88996
M73 Q1 S164
M73 P1 R162
G1 X96.700 Y157.180 E0.01680
G1 X76.716 Y137.196 E0.88830
G1 X77.288 Y137.233 E0.01801
G1 X97.235 Y157.180 E0.88665
G1 X97.769 Y157.180 E0.01680
G1 X77.860 Y137.271 E0.88499
G1 X78.432 Y137.308 E0.01801
G1 X98.304 Y157.180 E0.88334
G1 X98.839 Y157.180 E0.01680
G1 X78.998 Y137.340 E0.88191
G1 X79.543 Y137.350 E0.01714
G1 X99.373 Y157.180 E0.88144
G1 X99.908 Y157.180 E0.01680
G1 X80.088 Y137.361 E0.88098
G1 X80.634 Y137.371 E0.01714
G1 X100.442 Y157.180 E0.88051
G1 X100.977 Y157.180 E0.01680
G1 X81.179 Y137.382 E0.88004
G1 X81.724 Y137.393 E0.01714
G1 X101.511 Y157.180 E0.87957
G1 X102.046 Y157.180 E0.01680
G1 X82.269 Y137.403 E0.87910
G1 X82.814 Y137.414 E0.01714
G1 X102.581 Y157.180 E0.87864
G1 X103.115 Y157.180 E0.01680
G1 X83.359 Y137.424 E0.87817
G1 X83.904 Y137.435 E0.01714
G1 X103.650 Y157.180 E0.87770
G1 X104.184 Y157.180 E0.01680
G1 X84.449 Y137.445 E0.87723
G1 X84.994 Y137.456 E0.01714
G1 X104.719 Y157.180 E0.87676
G1 X105.254 Y157.180 E0.01680
G1 X85.540 Y137.466 E0.87630
G1 X86.085 Y137.477 E0.01714
G1 X105.788 Y157.180 E0.87583
G1 X106.323 Y157.180 E0.01680
G1 X86.630 Y137.487 E0.87536
G1 X87.175 Y137.498 E0.01714
G1 X106.857 Y157.180 E0.87489
G1 X107.392 Y157.180 E0.01680
G1 X87.720 Y137.508 E0.87442
G1 X88.265 Y137.519 E0.01714
G1 X107.926 Y157.180 E0.87396
G1 X108.461 Y157.180 E0.01680
G1 X88.810 Y137.529 E0.87349
G1 X89.355 Y137.540 E0.01714
G1 X108.996 Y157.180 E0.87302
G1 X109.530 Y157.180 E0.01680
G1 X89.900 Y137.550 E0.87255
G1 X90.445 Y137.561 E0.01714
G1 X110.065 Y157.180 E0.87208
G1 X110.599 Y157.180 E0.01680
G1 X90.991 Y137.572 E0.87162
G1 X91.536 Y137.582 E0.01714
G1 X111.134 Y157.180 E0.87115
G1 X111.668 Y157.180 E0.01680
G1 X92.081 Y137.593 E0.87068
G1 X92.626 Y137.603 E0.01714
G1 X112.203 Y157.180 E0.87021
G1 X112.738 Y157.180 E0.01680
G1 X93.171 Y137.614 E0.86974
G1 X93.702 Y137.610 E0.01669
G1 X113.272 Y157.180 E0.86990
G1 X113.807 Y157.180 E0.01680
G1 X94.223 Y137.596 E0.87051
G1 X94.744 Y137.583 E0.01638
G1 X114.341 Y157.180 E0.87112
G1 X114.876 Y157.180 E0.01680
G1 X95.265 Y137.569 E0.87172
G1 X95.786 Y137.555 E0.01638
G1 X115.411 Y157.180 E0.87233
G1 X115.945 Y157.180 E0.01680
G1 X96.307 Y137.542 E0.87294
G1 X96.828 Y137.528 E0.01638
G1 X116.480 Y157.180 E0.87354
G1 X117.014 Y157.180 E0.01680
G1 X97.348 Y137.514 E0.87415
G1 X97.869 Y137.501 E0.01638
G1 X117.549 Y157.180 E0.87476
G1 X118.083 Y157.180 E0.01680
G1 X98.390 Y137.487 E0.87536
G1 X98.911 Y137.474 E0.01638
G1 X118.618 Y157.180 E0.87597
M73 Q1 S163
M73 P1 R161
G1 X119.153 Y157.180 E0.01680
G1 X99.432 Y137.460 E0.87658
G1 X99.953 Y137.446 E0.01638
G1 X119.687 Y157.180 E0.87719
G1 X120.222 Y157.180 E0.01680
G1 X100.474 Y137.433 E0.87779
G1 X100.995 Y137.419 E0.01638
G1 X120.756 Y157.180 E0.87840
G1 X121.291 Y157.180 E0.01680
G1 X101.516 Y137.405 E0.87901
G1 X102.037 Y137.392 E0.01638
G1 X121.825 Y157.180 E0.87961
G1 X122.360 Y157.180 E0.01680
G1 X102.558 Y137.378 E0.88022
G1 X103.079 Y137.364 E0.01638
G1 X122.895 Y157.180 E0.88083
G1 X123.429 Y157.180 E0.01680
G1 X103.600 Y137.351 E0.88143
G1 X104.121 Y137.337 E0.01638
G1 X123.964 Y157.180 E0.88204
G1 X124.498 Y157.180 E0.01680
G1 X104.641 Y137.323 E0.88265
G1 X105.162 Y137.310 E0.01638
G1 X125.033 Y157.180 E0.88325
G1 X125.568 Y157.180 E0.01680
G1 X105.683 Y137.296 E0.88386
G1 X106.204 Y137.282 E0.01638
G1 X126.102 Y157.180 E0.88447
G1 X126.637 Y157.180 E0.01680
G1 X106.725 Y137.269 E0.88507
G1 X107.246 Y137.255 E0.01638
G1 X127.171 Y157.180 E0.88568
G1 X127.706 Y157.180 E0.01680
G1 X107.767 Y137.241 E0.88629
G1 X108.271 Y137.211 E0.01588
G1 X128.240 Y157.180 E0.88763
G1 X128.775 Y157.180 E0.01680
G1 X108.770 Y137.175 E0.88922
G1 X109.269 Y137.140 E0.01572
G1 X129.310 Y157.180 E0.89081
G1 X129.844 Y157.180 E0.01680
G1 X109.768 Y137.104 E0.89241
G1 X110.266 Y137.068 E0.01572
G1 X130.379 Y157.180 E0.89400
G1 X130.913 Y157.180 E0.01680
G1 X110.765 Y137.032 E0.89559
G1 X111.264 Y136.996 E0.01572
G1 X131.448 Y157.180 E0.89719
G1 X131.982 Y157.180 E0.01680
G1 X111.763 Y136.960 E0.89878
G1 X112.261 Y136.924 E0.01572
G1 X132.517 Y157.180 E0.90038
G1 X133.052 Y157.180 E0.01680
G1 X112.760 Y136.889 E0.90197
G1 X113.259 Y136.853 E0.01572
G1 X133.586 Y157.180 E0.90356
G1 X134.121 Y157.180 E0.01680
G1 X113.757 Y136.817 E0.90516
G1 X114.256 Y136.781 E0.01572
G1 X134.655 Y157.180 E0.90675
G1 X135.190 Y157.180 E0.01680
G1 X114.755 Y136.745 E0.90834
G1 X115.254 Y136.709 E0.01572
G1 X135.725 Y157.180 E0.90994
G1 X136.259 Y157.180 E0.01680
G1 X115.752 Y136.673 E0.91153
G1 X116.251 Y136.638 E0.01572
G1 X136.794 Y157.180 E0.91313
G1 X137.328 Y157.180 E0.01680
G1 X116.750 Y136.602 E0.91472
G1 X117.249 Y136.566 E0.01572
G1 X137.863 Y157.180 E0.91631
G1 X138.397 Y157.180 E0.01680
G1 X117.747 Y136.530 E0.91791
G1 X118.246 Y136.494 E0.01572
G1 X138.932 Y157.180 E0.91950
G1 X139.467 Y157.180 E0.01680
G1 X118.745 Y136.458 E0.92109
G1 X119.243 Y136.423 E0.01572
G1 X140.001 Y157.180 E0.92269
G1 X140.536 Y157.180 E0.01680
G1 X119.742 Y136.387 E0.92428
G1 X120.241 Y136.351 E0.01572
G1 X141.070 Y157.180 E0.92588
M73 Q2 S162
M73 P2 R160
G1 X141.605 Y157.180 E0.01680
G1 X120.740 Y136.315 E0.92747
G1 X121.238 Y136.279 E0.01572
G1 X142.139 Y157.180 E0.92906
G1 X142.674 Y157.180 E0.01680
G1 X121.737 Y136.243 E0.93066
G1 X122.236 Y136.207 E0.01572
G1 X143.209 Y157.180 E0.93225
G1 X143.743 Y157.180 E0.01680
G1 X122.816 Y136.253 E0.93021
G1 X123.405 Y136.307 E0.01857
G1 X144.278 Y157.180 E0.92782
G1 X144.812 Y157.180 E0.01680
G1 X123.993 Y136.361 E0.92543
G1 X124.581 Y136.415 E0.01857
G1 X145.347 Y157.180 E0.92304
G1 X145.881 Y157.180 E0.01680
G1 X125.170 Y136.468 E0.92066
G1 X125.758 Y136.522 E0.01857
G1 X146.416 Y157.180 E0.91827
G1 X146.951 Y157.180 E0.01680
G1 X126.346 Y136.576 E0.91588
G1 X126.934 Y136.630 E0.01857
G1 X147.485 Y157.180 E0.91349
G1 X148.020 Y157.180 E0.01680
G1 X127.523 Y136.683 E0.91110
G1 X128.111 Y136.737 E0.01857
G1 X148.554 Y157.180 E0.90871
G1 X149.089 Y157.180 E0.01680
G1 X128.699 Y136.791 E0.90632
G1 X129.288 Y136.844 E0.01857
G1 X149.624 Y157.180 E0.90393
G1 X150.158 Y157.180 E0.01680
G1 X129.876 Y136.898 E0.90154
G1 X130.450 Y136.937 E0.01808
G1 X150.693 Y157.180 E0.89980
G1 X151.227 Y157.180 E0.01680
G1 X131.022 Y136.975 E0.89814
G1 X131.594 Y137.012 E0.01802
G1 X151.762 Y157.180 E0.89647
G1 X152.296 Y157.180 E0.01680
G1 X132.166 Y137.050 E0.89481
G1 X132.738 Y137.087 E0.01802
G1 X152.831 Y157.180 E0.89314
G1 X153.366 Y157.180 E0.01680
G1 X133.310 Y137.125 E0.89148
G1 X133.882 Y137.162 E0.01802
G1 X153.900 Y157.180 E0.88982
G1 X154.435 Y157.180 E0.01680
G1 X134.454 Y137.199 E0.88815
G1 X135.026 Y137.237 E0.01802
G1 X154.969 Y157.180 E0.88649
G1 X155.504 Y157.180 E0.01680
G1 X135.598 Y137.274 E0.88482
G1 X136.170 Y137.312 E0.01802
G1 X156.038 Y157.180 E0.88316
G1 X156.573 Y157.180 E0.01680
G1 X136.742 Y137.349 E0.88150
G1 X137.314 Y137.387 E0.01802
G1 X157.108 Y157.180 E0.87983
G1 X157.642 Y157.180 E0.01680
G1 X137.881 Y137.419 E0.87840
G1 X138.438 Y137.441 E0.01751
G1 X158.177 Y157.180 E0.87742
G1 X158.711 Y157.180 E0.01680
G1 X138.994 Y137.463 E0.87643
G1 X139.551 Y137.485 E0.01751
G1 X159.246 Y157.180 E0.87545
G1 X159.781 Y157.180 E0.01680
G1 X140.108 Y137.507 E0.87447
G1 X140.664 Y137.529 E0.01751
G1 X160.315 Y157.180 E0.87349
G1 X160.850 Y157.180 E0.01680
G1 X141.221 Y137.551 E0.87251
G1 X141.778 Y137.574 E0.01751
G1 X161.384 Y157.180 E0.87153
G1 X161.919 Y157.180 E0.01680
G1 X142.334 Y137.596 E0.87055
G1 X142.891 Y137.618 E0.01751
G1 X162.453 Y157.180 E0.86956
G1 X162.988 Y157.180 E0.01680
G1 X143.448 Y137.640 E0.86858
M73 Q3 S161
M73 P3 R159
G1 X144.004 Y137.662 E0.01751
G1 X163.523 Y157.180 E0.86760
G1 X164.057 Y157.180 E0.01680
G1 X144.561 Y137.684 E0.86662
G1 X145.117 Y137.706 E0.01751
G1 X164.592 Y157.180 E0.86564
G1 X165.126 Y157.180 E0.01680
G1 X145.666 Y137.720 E0.86503
G1 X146.200 Y137.720 E0.01680
G1 X165.661 Y157.180 E0.86503
G1 X166.195 Y157.180 E0.01680
G1 X146.735 Y137.720 E0.86503
G1 X147.270 Y137.720 E0.01680
G1 X166.730 Y157.180 E0.86503
G1 X167.265 Y157.180 E0.01680
G1 X147.804 Y137.720 E0.86503
G1 X148.339 Y137.720 E0.01680
G1 X167.799 Y157.180 E0.86503
G1 X168.334 Y157.180 E0.01680
G1 X148.873 Y137.720 E0.86503
G1 X149.408 Y137.720 E0.01680
G1 X168.868 Y157.180 E0.86503
G1 X169.403 Y157.180 E0.01680
G1 X149.942 Y137.720 E0.86503
G1 X150.477 Y137.720 E0.01680
G1 X169.938 Y157.180 E0.86503
G1 X170.472 Y157.180 E0.01680
G1 X151.012 Y137.720 E0.86503
G1 X151.546 Y137.720 E0.01680
G1 X171.007 Y157.180 E0.86503
G1 X171.541 Y157.180 E0.01680
G1 X152.081 Y137.720 E0.86503
G1 X152.615 Y137.720 E0.01680
G1 X172.076 Y157.180 E0.86503
G1 X172.610 Y157.180 E0.01680
G1 X153.150 Y137.720 E0.86503
G1 X153.685 Y137.720 E0.01680
G1 X173.145 Y157.180 E0.86503
G1 X173.680 Y157.180 E0.01680
G1 X154.219 Y137.720 E0.86503
G1 X154.754 Y137.720 E0.01680
G1 X174.214 Y157.180 E0.86503
G1 X174.749 Y157.180 E0.01680
G1 X155.288 Y137.720 E0.86503
G1 X155.823 Y137.720 E0.01680
G1 X175.283 Y157.180 E0.86503
