; generated by PrusaSlicer 2.1.0+win64 on 2020-02-22 at 20:45:11 UTC

; 

; external perimeters extrusion width = 0.45mm
; perimeters extrusion width = 0.45mm
; infill extrusion width = 0.45mm
; solid infill extrusion width = 0.45mm
; top infill extrusion width = 0.40mm
; first layer extrusion width = 0.42mm

M73 P0 R31
M73 Q0 S31
M201 X1000 Y1000 Z1000 E5000 ; sets maximum accelerations, mm/sec^2
M203 X200 Y200 Z12 E120 ; sets maximum feedrates, mm/sec
M204 P1250 R1250 T1250 ; sets acceleration (P, T) and retract acceleration (R), mm/sec^2
M205 X8.00 Y8.00 Z0.40 E1.50 ; sets the jerk limits, mm/sec
M205 S0 T0 ; sets the minimum extruding and travel feed rate, mm/sec
M107
M862.3 P "MK3SMMU2S" ; printer model check
M862.1 P0.4 ; nozzle diameter check
M115 U3.8.1 ; tell printer latest fw version
G90 ; use absolute coordinates
M83 ; extruder relative mode
M104 S215 ; set extruder temp
M140 S60 ; set bed temp
Tx
M190 S60 ; wait for bed temp
M109 S215 ; wait for extruder temp
G28 W ; home all without mesh bed level
G80 ; mesh bed leveling

G21 ; set units to millimeters

;go outside print area
G1 Y-3.0 F1000.0
G1 Z0.4 F1000.0
; select extruder
Tc
; purge line
G1 X55.0 F2000.0
G1 Z0.3 F1000.0
G92 E0.0
G1 X240.0 E25.0 F2200.0
M73 Q0 S31
M73 P0 R31
G1 Y-2.0 F1000.0
G1 X55.0 E25 F1400.0
G1 Z0.20 F1000.0
G1 X5.0 E4.0 F1000.0

M221 S95
G92 E0.0
G21 ; set units to millimeters
G90 ; use absolute coordinates
M83 ; use relative distances for extrusion
M900 K30 ; Filament gcode
;BEFORE_LAYER_CHANGE
G92 E0.0
;0.2


G1 E-0.80000 F2100.00000
G1 Z0.600 F10800.000
;AFTER_LAYER_CHANGE
;0.2
G1 X66.015 Y93.358
G1 Z0.200
G1 E0.80000 F2100.00000
M204 S1000
G1 F1200
G1 X66.648 Y93.098 E0.02146
G1 X67.148 Y93.040 E0.01578
G1 X143.331 Y93.040 E2.38866
G1 X151.675 Y93.420 E0.26191
G1 X159.863 Y94.516 E0.25902
G1 X168.128 Y96.370 E0.26558
G1 X176.073 Y98.909 E0.26151
G1 X183.822 Y102.160 E0.26350
G1 X184.429 Y102.605 E0.02360
G1 X184.849 Y103.230 E0.02360
G1 X185.033 Y103.960 E0.02360
G1 X184.957 Y104.713 E0.02372
G1 X184.773 Y105.166 E0.01532
G1 X184.493 Y105.566 E0.01532
G1 X184.131 Y105.895 E0.01532
G1 X183.706 Y106.135 E0.01532
G1 X176.075 Y109.333 E0.25941
G1 X168.173 Y111.859 E0.26013
G1 X159.959 Y113.711 E0.26399
G1 X151.605 Y114.828 E0.26428
G1 X143.394 Y115.201 E0.25772
G1 X82.311 Y116.959 E1.91600
G1 X77.265 Y116.958 E0.15821
G1 X76.764 Y116.880 E0.01589
G1 X70.261 Y115.013 E0.21214
G1 X65.934 Y112.823 E0.15207
G1 X65.351 Y112.250 E0.02563
G1 X65.020 Y111.506 E0.02552
G1 X64.961 Y111.010 E0.01567
G1 X64.970 Y95.035 E0.50088
G1 X65.135 Y94.375 E0.02134
G1 X65.495 Y93.797 E0.02134
G1 X65.969 Y93.396 E0.01946
G1 F8640
G1 X66.648 Y93.098 E-0.17124
G1 X67.148 Y93.040 E-0.11620
G1 X69.194 Y93.040 E-0.47256
G1 E-0.04000 F2100.00000
G1 Z0.800 F10800.000
G1 X94.607 Y101.060
G1 Z0.200
G1 E0.80000 F2100.00000
G1 F1200
G1 X153.599 Y101.060 E1.84966
G1 X154.231 Y101.145 E0.02000
G1 X154.857 Y101.405 E0.02125
G1 X155.394 Y101.819 E0.02124
G1 X155.806 Y102.358 E0.02128
G1 X156.063 Y102.985 E0.02127
G1 X156.146 Y103.619 E0.02004
G1 X156.146 Y104.623 E0.03146
G1 X156.063 Y105.257 E0.02005
G1 X155.806 Y105.883 E0.02124
G1 X155.394 Y106.423 E0.02130
G1 X154.857 Y106.837 E0.02125
G1 X154.231 Y107.097 E0.02127
G1 X153.598 Y107.181 E0.02000
G1 X94.607 Y107.181 E1.84964
G1 X94.607 Y101.120 E0.19001
G1 X94.984 Y101.438 F10800.000
G1 F1200
G1 X153.574 Y101.438 E1.83705
G1 X154.132 Y101.512 E0.01766
G1 X154.666 Y101.734 E0.01814
G1 X155.124 Y102.087 E0.01812
G1 X155.476 Y102.547 E0.01816
G1 X155.696 Y103.083 E0.01817
G1 X155.769 Y103.644 E0.01773
G1 X155.769 Y104.598 E0.02992
G1 X155.696 Y105.159 E0.01773
G1 X155.476 Y105.694 E0.01813
G1 X155.124 Y106.155 E0.01818
G1 X154.666 Y106.508 E0.01813
G1 X154.132 Y106.730 E0.01814
G1 X153.574 Y106.803 E0.01765
G1 X94.984 Y106.803 E1.83704
G1 X94.984 Y101.497 E0.16637
G1 X94.795 Y101.085 F10800.000
G1 F8640
G1 X98.275 Y101.494 E-0.76000
G1 E-0.04000 F2100.00000
G1 Z0.800 F10800.000
G1 X81.661 Y112.426
G1 Z0.200
G1 E0.80000 F2100.00000
G1 F1200
G1 X81.661 Y114.184 E0.05512
G1 X77.936 Y114.184 E0.11679
G1 X77.936 Y112.426 E0.05512
G1 X71.289 Y112.426 E0.20841
G1 X67.737 Y110.641 E0.12465
G1 X67.737 Y95.816 E0.46486
G1 X143.314 Y95.816 E2.36965
G1 X151.429 Y96.185 E0.25470
G1 X159.468 Y97.264 E0.25434
G1 X167.384 Y99.045 E0.25439
G1 X175.114 Y101.514 E0.25443
G1 X181.332 Y104.121 E0.21140
G1 X175.114 Y106.728 E0.21141
G1 X167.384 Y109.197 E0.25443
G1 X159.468 Y110.978 E0.25439
G1 X151.429 Y112.057 E0.25434
G1 X143.314 Y112.426 E0.25470
G1 X81.721 Y112.426 E1.93120
G1 X82.038 Y112.804 F10800.000
G1 F1200
G1 X82.038 Y114.562 E0.05512
G1 X77.559 Y114.562 E0.14044
G1 X77.559 Y112.804 E0.05512
G1 X71.200 Y112.804 E0.19939
G1 X67.360 Y110.874 E0.13474
G1 X67.360 Y95.438 E0.48397
G1 X143.322 Y95.438 E2.38174
G1 X151.462 Y95.809 E0.25549
G1 X159.535 Y96.892 E0.25538
G1 X167.483 Y98.680 E0.25543
G1 X175.244 Y101.160 E0.25547
G1 X182.307 Y104.121 E0.24011
M73 Q3 S30
G1 X175.244 Y107.082 E0.24013
M73 P3 R30
G1 X167.483 Y109.562 E0.25547
G1 X159.535 Y111.350 E0.25543
G1 X151.462 Y112.433 E0.25538
G1 X143.322 Y112.804 E0.25549
G1 X82.098 Y112.804 E1.91964
G1 X81.638 Y112.804 F10800.000
G1 F8640
G1 X82.038 Y114.562 E-0.40616
G1 X80.506 Y114.562 E-0.35384
G1 E-0.04000 F2100.00000
G1 Z0.800 F10800.000
G1 X79.603 Y114.071
G1 Z0.200
G1 E0.80000 F2100.00000
G1 F1200
G1 X78.219 Y112.687 E0.06153
G1 X78.219 Y113.221 E0.01680
G1 X78.899 Y113.902 E0.03024
G1 X78.365 Y113.902 E0.01680
G1 X78.049 Y113.586 E0.01403
G1 F8640
G1 X78.365 Y113.902 E-0.10309
G1 X78.899 Y113.902 E-0.12341
G1 X78.219 Y113.221 E-0.22221
G1 X78.219 Y112.687 E-0.12341
G1 X78.794 Y113.262 E-0.18788
G1 E-0.04000 F2100.00000
G1 Z0.800 F10800.000
G1 X71.432 Y112.313
G1 Z0.200
G1 E0.80000 F2100.00000
G1 F1200
G1 X68.020 Y108.901 E0.15164
G1 X68.020 Y108.367 E0.01680
G1 X71.797 Y112.144 E0.16785
G1 X72.331 Y112.144 E0.01680
G1 X68.020 Y107.832 E0.19160
G1 X68.020 Y107.298 E0.01680
G1 X72.866 Y112.144 E0.21535
G1 X73.400 Y112.144 E0.01680
G1 X68.020 Y106.763 E0.23910
G1 X68.020 Y106.229 E0.01680
G1 X73.935 Y112.144 E0.26285
G1 X74.469 Y112.144 E0.01680
G1 X68.020 Y105.694 E0.28661
G1 X68.020 Y105.160 E0.01680
G1 X75.004 Y112.144 E0.31036
G1 X75.538 Y112.144 E0.01680
G1 X68.020 Y104.626 E0.33411
G1 X68.020 Y104.091 E0.01680
G1 X76.072 Y112.144 E0.35786
G1 X76.607 Y112.144 E0.01680
G1 X68.020 Y103.557 E0.38161
G1 X68.020 Y103.022 E0.01680
G1 X77.141 Y112.144 E0.40536
G1 X77.676 Y112.144 E0.01680
G1 X68.020 Y102.488 E0.42912
G1 X68.020 Y101.953 E0.01680
G1 X79.968 Y113.902 E0.53099
G1 X80.503 Y113.902 E0.01680
G1 X68.020 Y101.419 E0.55475
G1 X68.020 Y100.884 E0.01680
G1 X81.037 Y113.902 E0.57850
G1 X81.378 Y113.902 E0.01071
G1 X81.378 Y113.708 E0.00608
G1 X68.020 Y100.350 E0.59365
G1 X68.020 Y99.815 E0.01680
G1 X81.378 Y113.174 E0.59365
G1 X81.378 Y112.639 E0.01680
G1 X68.020 Y99.281 E0.59365
G1 X68.020 Y98.746 E0.01680
G1 X81.417 Y112.144 E0.59538
G1 X81.952 Y112.144 E0.01680
G1 X68.020 Y98.212 E0.61913
G1 X68.020 Y97.678 E0.01680
G1 X82.486 Y112.144 E0.64288
G1 X83.020 Y112.144 E0.01680
G1 X68.020 Y97.143 E0.66663
G1 X68.020 Y96.609 E0.01680
G1 X83.555 Y112.144 E0.69039
G1 X84.089 Y112.144 E0.01680
G1 X68.044 Y96.098 E0.71306
G1 X68.579 Y96.098 E0.01680
G1 X84.624 Y112.144 E0.71306
G1 X85.158 Y112.144 E0.01680
G1 X69.113 Y96.098 E0.71306
G1 X69.647 Y96.098 E0.01680
G1 X85.693 Y112.144 E0.71306
G1 X86.227 Y112.144 E0.01680
G1 X70.182 Y96.098 E0.71306
G1 X70.716 Y96.098 E0.01680
G1 X86.762 Y112.144 E0.71306
G1 X87.296 Y112.144 E0.01680
G1 X71.251 Y96.098 E0.71306
G1 X71.785 Y96.098 E0.01680
G1 X87.831 Y112.144 E0.71306
G1 X88.365 Y112.144 E0.01680
G1 X72.320 Y96.098 E0.71306
G1 X72.854 Y96.098 E0.01680
G1 X88.899 Y112.144 E0.71306
G1 X89.434 Y112.144 E0.01680
G1 X73.389 Y96.098 E0.71306
G1 X73.923 Y96.098 E0.01680
G1 X89.968 Y112.144 E0.71306
G1 X90.503 Y112.144 E0.01680
G1 X74.458 Y96.098 E0.71306
G1 X74.992 Y96.098 E0.01680
G1 X91.037 Y112.144 E0.71306
G1 X91.572 Y112.144 E0.01680
G1 X75.527 Y96.098 E0.71306
G1 X76.061 Y96.098 E0.01680
G1 X92.106 Y112.144 E0.71306
G1 X92.641 Y112.144 E0.01680
G1 X76.595 Y96.098 E0.71306
G1 X77.130 Y96.098 E0.01680
G1 X93.175 Y112.144 E0.71306
G1 X93.710 Y112.144 E0.01680
G1 X77.664 Y96.098 E0.71306
G1 X78.199 Y96.098 E0.01680
G1 X94.244 Y112.144 E0.71306
G1 X94.779 Y112.144 E0.01680
G1 X78.733 Y96.098 E0.71306
G1 X79.268 Y96.098 E0.01680
G1 X95.313 Y112.144 E0.71306
G1 X95.847 Y112.144 E0.01680
G1 X79.802 Y96.098 E0.71306
G1 X80.337 Y96.098 E0.01680
G1 X96.382 Y112.144 E0.71306
G1 X96.916 Y112.144 E0.01680
G1 X80.871 Y96.098 E0.71306
G1 X81.406 Y96.098 E0.01680
G1 X97.451 Y112.144 E0.71306
G1 X97.985 Y112.144 E0.01680
G1 X81.940 Y96.098 E0.71306
G1 X82.475 Y96.098 E0.01680
G1 X98.520 Y112.144 E0.71306
G1 X99.054 Y112.144 E0.01680
G1 X83.009 Y96.098 E0.71306
G1 X83.543 Y96.098 E0.01680
G1 X94.324 Y106.879 E0.47910
G1 X94.324 Y106.345 E0.01680
G1 X84.078 Y96.098 E0.45535
G1 X84.612 Y96.098 E0.01680
G1 X94.324 Y105.810 E0.43160
G1 X94.324 Y105.276 E0.01680
M73 Q6 S29
G1 X85.147 Y96.098 E0.40785
M73 P6 R29
G1 X85.681 Y96.098 E0.01680
G1 X94.324 Y104.741 E0.38409
G1 X94.324 Y104.207 E0.01680
G1 X86.216 Y96.098 E0.36034
G1 X86.750 Y96.098 E0.01680
G1 X94.324 Y103.672 E0.33659
G1 X94.324 Y103.138 E0.01680
G1 X87.285 Y96.098 E0.31284
G1 X87.819 Y96.098 E0.01680
G1 X94.324 Y102.603 E0.28909
G1 X94.324 Y102.069 E0.01680
G1 X88.354 Y96.098 E0.26533
G1 X88.888 Y96.098 E0.01680
G1 X94.324 Y101.534 E0.24158
G1 X94.324 Y101.000 E0.01680
G1 X89.423 Y96.098 E0.21783
G1 X89.957 Y96.098 E0.01680
G1 X94.636 Y100.778 E0.20795
G1 X95.171 Y100.778 E0.01680
G1 X90.491 Y96.098 E0.20795
G1 X91.026 Y96.098 E0.01680
G1 X95.705 Y100.778 E0.20795
G1 X96.240 Y100.778 E0.01680
G1 X91.560 Y96.098 E0.20795
G1 X92.095 Y96.098 E0.01680
G1 X96.774 Y100.778 E0.20795
G1 X97.309 Y100.778 E0.01680
G1 X92.629 Y96.098 E0.20795
G1 X93.164 Y96.098 E0.01680
G1 X97.843 Y100.778 E0.20795
G1 X98.377 Y100.778 E0.01680
G1 X93.698 Y96.098 E0.20795
G1 X94.233 Y96.098 E0.01680
G1 X98.912 Y100.778 E0.20795
G1 X99.446 Y100.778 E0.01680
G1 X94.767 Y96.098 E0.20795
G1 X95.302 Y96.098 E0.01680
G1 X99.981 Y100.778 E0.20795
G1 X100.515 Y100.778 E0.01680
G1 X95.836 Y96.098 E0.20795
G1 X96.371 Y96.098 E0.01680
G1 X101.050 Y100.778 E0.20795
G1 X101.584 Y100.778 E0.01680
G1 X96.905 Y96.098 E0.20795
G1 X97.439 Y96.098 E0.01680
G1 X102.119 Y100.778 E0.20795
G1 X102.653 Y100.778 E0.01680
G1 X97.974 Y96.098 E0.20795
G1 X98.508 Y96.098 E0.01680
G1 X103.188 Y100.778 E0.20795
G1 X103.722 Y100.778 E0.01680
G1 X99.043 Y96.098 E0.20795
G1 X99.577 Y96.098 E0.01680
G1 X104.257 Y100.778 E0.20795
G1 X104.791 Y100.778 E0.01680
G1 X100.112 Y96.098 E0.20795
G1 X100.646 Y96.098 E0.01680
G1 X105.325 Y100.778 E0.20795
G1 X105.860 Y100.778 E0.01680
G1 X101.181 Y96.098 E0.20795
G1 X101.715 Y96.098 E0.01680
G1 X106.394 Y100.778 E0.20795
G1 X106.929 Y100.778 E0.01680
G1 X102.250 Y96.098 E0.20795
G1 X102.784 Y96.098 E0.01680
G1 X107.463 Y100.778 E0.20795
G1 X107.998 Y100.778 E0.01680
G1 X103.319 Y96.098 E0.20795
G1 X103.853 Y96.098 E0.01680
G1 X108.532 Y100.778 E0.20795
G1 X109.067 Y100.778 E0.01680
G1 X104.387 Y96.098 E0.20795
G1 X104.922 Y96.098 E0.01680
G1 X109.601 Y100.778 E0.20795
G1 X110.136 Y100.778 E0.01680
G1 X105.456 Y96.098 E0.20795
G1 X105.991 Y96.098 E0.01680
G1 X110.670 Y100.778 E0.20795
G1 X111.205 Y100.778 E0.01680
G1 X106.525 Y96.098 E0.20795
G1 X107.060 Y96.098 E0.01680
G1 X111.739 Y100.778 E0.20795
G1 X112.273 Y100.778 E0.01680
G1 X107.594 Y96.098 E0.20795
G1 X108.129 Y96.098 E0.01680
G1 X112.808 Y100.778 E0.20795
G1 X113.342 Y100.778 E0.01680
G1 X108.663 Y96.098 E0.20795
G1 X109.198 Y96.098 E0.01680
G1 X113.877 Y100.778 E0.20795
G1 X114.411 Y100.778 E0.01680
G1 X109.732 Y96.098 E0.20795
G1 X110.266 Y96.098 E0.01680
G1 X114.946 Y100.778 E0.20795
G1 X115.480 Y100.778 E0.01680
G1 X110.801 Y96.098 E0.20795
G1 X111.335 Y96.098 E0.01680
G1 X116.015 Y100.778 E0.20795
G1 X116.549 Y100.778 E0.01680
G1 X111.870 Y96.098 E0.20795
G1 X112.404 Y96.098 E0.01680
G1 X117.084 Y100.778 E0.20795
G1 X117.618 Y100.778 E0.01680
G1 X112.939 Y96.098 E0.20795
G1 X113.473 Y96.098 E0.01680
G1 X118.153 Y100.778 E0.20795
G1 X118.687 Y100.778 E0.01680
G1 X114.008 Y96.098 E0.20795
G1 X114.542 Y96.098 E0.01680
G1 X119.221 Y100.778 E0.20795
G1 X119.756 Y100.778 E0.01680
G1 X115.077 Y96.098 E0.20795
G1 X115.611 Y96.098 E0.01680
G1 X120.290 Y100.778 E0.20795
G1 X120.825 Y100.778 E0.01680
G1 X116.146 Y96.098 E0.20795
G1 X116.680 Y96.098 E0.01680
G1 X121.359 Y100.778 E0.20795
G1 X121.894 Y100.778 E0.01680
G1 X117.214 Y96.098 E0.20795
G1 X117.749 Y96.098 E0.01680
G1 X122.428 Y100.778 E0.20795
G1 X122.963 Y100.778 E0.01680
G1 X118.283 Y96.098 E0.20795
G1 X118.818 Y96.098 E0.01680
G1 X123.497 Y100.778 E0.20795
G1 X124.032 Y100.778 E0.01680
G1 X119.352 Y96.098 E0.20795
G1 X119.887 Y96.098 E0.01680
G1 X124.566 Y100.778 E0.20795
G1 X125.101 Y100.778 E0.01680
G1 X120.421 Y96.098 E0.20795
G1 X120.956 Y96.098 E0.01680
G1 X125.635 Y100.778 E0.20795
G1 X126.169 Y100.778 E0.01680
G1 X121.490 Y96.098 E0.20795
G1 X122.025 Y96.098 E0.01680
G1 X126.704 Y100.778 E0.20795
G1 X127.238 Y100.778 E0.01680
G1 X122.559 Y96.098 E0.20795
G1 X123.094 Y96.098 E0.01680
G1 X127.773 Y100.778 E0.20795
G1 X128.307 Y100.778 E0.01680
G1 X123.628 Y96.098 E0.20795
G1 X124.162 Y96.098 E0.01680
G1 X128.842 Y100.778 E0.20795
G1 X129.376 Y100.778 E0.01680
G1 X124.697 Y96.098 E0.20795
G1 X125.231 Y96.098 E0.01680
G1 X129.911 Y100.778 E0.20795
G1 X130.445 Y100.778 E0.01680
G1 X125.766 Y96.098 E0.20795
G1 X126.300 Y96.098 E0.01680
G1 X130.980 Y100.778 E0.20795
G1 X131.514 Y100.778 E0.01680
G1 X126.835 Y96.098 E0.20795
G1 X127.369 Y96.098 E0.01680
G1 X132.049 Y100.778 E0.20795
G1 X132.583 Y100.778 E0.01680
G1 X127.904 Y96.098 E0.20795
G1 X128.438 Y96.098 E0.01680
G1 X133.117 Y100.778 E0.20795
G1 X133.652 Y100.778 E0.01680
G1 X128.973 Y96.098 E0.20795
G1 X129.507 Y96.098 E0.01680
G1 X134.186 Y100.778 E0.20795
G1 X134.721 Y100.778 E0.01680
G1 X130.042 Y96.098 E0.20795
G1 X130.576 Y96.098 E0.01680
G1 X135.255 Y100.778 E0.20795
G1 X135.790 Y100.778 E0.01680
G1 X131.110 Y96.098 E0.20795
G1 X131.645 Y96.098 E0.01680
G1 X136.324 Y100.778 E0.20795
G1 X136.859 Y100.778 E0.01680
G1 X132.179 Y96.098 E0.20795
G1 X132.714 Y96.098 E0.01680
G1 X137.393 Y100.778 E0.20795
G1 X137.928 Y100.778 E0.01680
G1 X133.248 Y96.098 E0.20795
G1 X133.783 Y96.098 E0.01680
G1 X138.462 Y100.778 E0.20795
G1 X138.997 Y100.778 E0.01680
G1 X134.317 Y96.098 E0.20795
G1 X134.852 Y96.098 E0.01680
G1 X139.531 Y100.778 E0.20795
G1 X140.065 Y100.778 E0.01680
G1 X135.386 Y96.098 E0.20795
G1 X135.921 Y96.098 E0.01680
G1 X140.600 Y100.778 E0.20795
G1 X141.134 Y100.778 E0.01680
G1 X136.455 Y96.098 E0.20795
G1 X136.990 Y96.098 E0.01680
G1 X141.669 Y100.778 E0.20795
G1 X142.203 Y100.778 E0.01680
G1 X137.524 Y96.098 E0.20795
G1 X138.058 Y96.098 E0.01680
G1 X142.738 Y100.778 E0.20795
G1 X143.272 Y100.778 E0.01680
G1 X138.593 Y96.098 E0.20795
G1 X139.127 Y96.098 E0.01680
G1 X143.807 Y100.778 E0.20795
G1 X144.341 Y100.778 E0.01680
G1 X139.662 Y96.098 E0.20795
G1 X140.196 Y96.098 E0.01680
G1 X144.876 Y100.778 E0.20795
G1 X145.410 Y100.778 E0.01680
G1 X140.731 Y96.098 E0.20795
G1 X141.265 Y96.098 E0.01680
G1 X145.945 Y100.778 E0.20795
G1 X146.479 Y100.778 E0.01680
G1 X141.800 Y96.098 E0.20795
G1 X142.334 Y96.098 E0.01680
G1 X147.013 Y100.778 E0.20795
G1 X147.548 Y100.778 E0.01680
G1 X142.869 Y96.098 E0.20795
G1 X143.408 Y96.103 E0.01694
G1 X148.082 Y100.778 E0.20775
G1 X148.617 Y100.778 E0.01680
G1 X143.968 Y96.128 E0.20661
G1 X144.528 Y96.154 E0.01761
G1 X149.151 Y100.778 E0.20548
G1 X149.686 Y100.778 E0.01680
G1 X145.087 Y96.179 E0.20435
G1 X145.647 Y96.205 E0.01761
G1 X150.220 Y100.778 E0.20322
G1 X150.755 Y100.778 E0.01680
G1 X146.207 Y96.230 E0.20209
G1 X146.767 Y96.256 E0.01761
G1 X151.289 Y100.778 E0.20095
G1 X151.824 Y100.778 E0.01680
G1 X147.327 Y96.281 E0.19982
G1 X147.887 Y96.307 E0.01761
G1 X152.358 Y100.778 E0.19869
G1 X152.892 Y100.778 E0.01680
G1 X148.447 Y96.332 E0.19756
G1 X149.007 Y96.358 E0.01761
