; generated by PrusaSlicer 2.3.0+win64 on 2021-04-16 at 09:51:25 UTC

; 

; external perimeters extrusion width = 0.45mm
; perimeters extrusion width = 0.45mm
; infill extrusion width = 0.45mm
; solid infill extrusion width = 0.45mm
; top infill extrusion width = 0.40mm
; first layer extrusion width = 0.42mm

M73 P0 R60
M73 Q0 S60
M201 X1000 Y1000 Z200 E5000 ; sets maximum accelerations, mm/sec^2
M203 X200 Y200 Z12 E120 ; sets maximum feedrates, mm/sec
M204 P1250 R1250 T1250 ; sets acceleration (P, T) and retract acceleration (R), mm/sec^2
M205 X8.00 Y8.00 Z0.40 E4.50 ; sets the jerk limits, mm/sec
M205 S0 T0 ; sets the minimum extruding and travel feed rate, mm/sec
M107
;TYPE:Custom
M862.3 P "MK3S" ; printer model check
M862.1 P0.4 ; nozzle diameter check
M115 U3.9.2 ; tell printer latest fw version
G90 ; use absolute coordinates
M83 ; extruder relative mode
M104 S215 ; set extruder temp
M140 S60 ; set bed temp
M190 S60 ; wait for bed temp
M109 S215 ; wait for extruder temp
G28 W ; home all without mesh bed level
G80 ; mesh bed leveling
G1 Y-3.0 F1000.0 ; go outside print area
G92 E0.0
G1 X60.0 E9.0 F1000.0 ; intro line
G1 X100.0 E12.5 F1000.0 ; intro line
G92 E0.0
M221 S95

; Don't change E values below. Excessive value can damage the printer.
M907 E430 ; set extruder motor current
G21 ; set units to millimeters
G90 ; use absolute coordinates
M83 ; use relative distances for extrusion
M900 K0.05 ; Filament gcode LA 1.5
M900 K30 ; Filament gcode LA 1.0
;LAYER_CHANGE
;Z:0.2
;HEIGHT:0.2
;BEFORE_LAYER_CHANGE
G92 E0.0
;0.2


G1 E-0.80000 F2100.000
G1 Z0.400 F10800.000
;AFTER_LAYER_CHANGE
;0.2
G1 X111.172 Y57.523
G1 Z0.200
G1 E0.80000 F2100.000
M204 S1000
;TYPE:Skirt
;WIDTH:0.42
G1 F1200.000
G1 X112.083 Y57.292 E0.02946
G1 X138.312 Y57.282 E0.82240
G1 X139.012 Y57.376 E0.02214
G1 X139.554 Y57.576 E0.01811
G1 X140.140 Y57.960 E0.02197
G1 X140.635 Y58.478 E0.02246
G1 X140.995 Y59.041 E0.02094
G1 X141.230 Y59.604 E0.01914
G1 X141.438 Y60.522 E0.02951
G1 X141.501 Y61.371 E0.02670
G1 X141.502 Y141.459 E2.51110
G1 X141.398 Y143.031 E0.04939
G1 X141.118 Y144.474 E0.04607
G1 X140.584 Y146.089 E0.05336
G1 X139.940 Y147.410 E0.04607
G1 X138.887 Y148.985 E0.05938
G1 X137.922 Y150.080 E0.04577
G1 X136.715 Y151.133 E0.05023
G1 X135.400 Y152.011 E0.04957
G1 X133.916 Y152.737 E0.05179
M73 P0 R59
G1 X132.312 Y153.262 E0.05294
G1 X130.893 Y153.538 E0.04532
G1 X129.384 Y153.640 E0.04740
G1 X121.228 Y153.640 E0.25573
G1 X119.718 Y153.538 E0.04745
G1 X118.281 Y153.257 E0.04591
G1 X116.654 Y152.720 E0.05371
G1 X115.206 Y152.006 E0.05063
G1 X113.870 Y151.110 E0.05046
G1 X112.581 Y149.960 E0.05415
G1 X111.635 Y148.872 E0.04522
G1 X110.827 Y147.675 E0.04527
G1 X110.095 Y146.235 E0.05066
G1 X109.530 Y144.611 E0.05391
G1 X109.208 Y142.958 E0.05279
G1 X109.113 Y141.450 E0.04737
G1 X109.113 Y61.444 E2.50853
G1 X109.273 Y60.024 E0.04481
G1 X109.637 Y59.009 E0.03381
G1 X110.341 Y58.081 E0.03651
G1 X111.122 Y57.556 E0.02951
; printing object Blocker01.STL id:0 copy 0
;WIPE_START
G1 F8640.000
G1 X112.083 Y57.292 E-0.23004
G1 X114.378 Y57.291 E-0.52996
;WIPE_END
G1 E-0.04000 F2100.000
G1 Z0.600 F10800.000
G1 X114.521 Y99.161
G1 Z0.200
G1 E0.80000 F2100.000
;TYPE:Perimeter
G1 F1200.000
G1 X136.093 Y99.161 E0.67638
G1 X136.093 Y141.920 E1.34069
G1 X114.521 Y141.920 E0.67638
G1 X114.521 Y99.221 E1.33881
G1 X114.898 Y99.538 F10800.000
;TYPE:External perimeter
G1 F1200.000
G1 X135.716 Y99.538 E0.65273
G1 X135.716 Y141.543 E1.31704
G1 X114.898 Y141.543 E0.65273
G1 X114.898 Y99.598 E1.31516
G1 X114.837 Y99.143 F10800.000
;WIPE_START
G1 F8640.000
G1 X118.190 Y99.588 E-0.76000
;WIPE_END
G1 E-0.04000 F2100.000
G1 Z0.600 F10800.000
G1 X112.663 Y61.521
G1 Z0.200
G1 E0.80000 F2100.000
;TYPE:Perimeter
G1 F1200.000
G1 X112.686 Y61.396 E0.00398
G1 X137.929 Y61.403 E0.79149
G1 X137.952 Y61.521 E0.00377
G1 X137.952 Y141.422 E2.50525
M73 P1 R59
M73 Q1 S59
G1 X137.877 Y142.575 E0.03621
G1 X137.656 Y143.684 E0.03548
G1 X137.293 Y144.754 E0.03542
G1 X136.793 Y145.769 E0.03547
G1 X136.165 Y146.709 E0.03545
G1 X136.079 Y146.807 E0.00410
G1 X135.419 Y147.559 E0.03134
G1 X134.569 Y148.305 E0.03547
G1 X133.629 Y148.932 E0.03543
G1 X132.616 Y149.433 E0.03543
G1 X131.545 Y149.795 E0.03546
G1 X130.434 Y150.016 E0.03551
G1 X129.280 Y150.093 E0.03626
G1 X121.334 Y150.093 E0.24914
G1 X120.180 Y150.016 E0.03626
G1 X119.070 Y149.795 E0.03551
G1 X117.998 Y149.433 E0.03547
G1 X116.986 Y148.933 E0.03540
G1 X116.045 Y148.305 E0.03545
G1 X115.195 Y147.559 E0.03545
G1 X114.450 Y146.709 E0.03546
G1 X113.822 Y145.769 E0.03543
G1 X113.321 Y144.754 E0.03550
G1 X112.957 Y143.684 E0.03541
G1 X112.738 Y142.575 E0.03546
G1 X112.663 Y141.422 E0.03621
G1 X112.663 Y61.581 E2.50338
G1 X112.373 Y61.021 F10800.000
;TYPE:External perimeter
G1 F1200.000
G1 X138.243 Y61.026 E0.81114
G1 X138.329 Y61.486 E0.01469
G1 X138.329 Y141.435 E2.50673
G1 X138.251 Y142.624 E0.03737
G1 X138.021 Y143.782 E0.03702
G1 X137.642 Y144.899 E0.03697
G1 X137.120 Y145.958 E0.03702
G1 X136.465 Y146.939 E0.03699
G1 X136.362 Y147.056 E0.00488
G1 X135.687 Y147.826 E0.03212
G1 X134.799 Y148.605 E0.03702
G1 X133.818 Y149.260 E0.03698
G1 X132.761 Y149.782 E0.03698
G1 X131.642 Y150.160 E0.03701
G1 X130.484 Y150.391 E0.03704
G1 X129.293 Y150.470 E0.03743
G1 X121.322 Y150.470 E0.24992
G1 X120.131 Y150.391 E0.03742
G1 X118.972 Y150.160 E0.03705
G1 X117.854 Y149.782 E0.03702
G1 X116.797 Y149.260 E0.03696
G1 X115.815 Y148.604 E0.03700
G1 X114.928 Y147.826 E0.03701
G1 X114.150 Y146.939 E0.03702
G1 X113.495 Y145.958 E0.03698
G1 X112.972 Y144.898 E0.03704
G1 X112.592 Y143.782 E0.03697
G1 X112.363 Y142.624 E0.03702
G1 X112.286 Y141.435 E0.03737
G1 X112.286 Y61.486 E2.50674
G1 X112.362 Y61.080 E0.01295
G1 X112.719 Y61.221 F10800.000
;WIPE_START
G1 F8640.000
G1 X115.653 Y61.073 E-0.76000
;WIPE_END
G1 E-0.04000 F2100.000
G1 Z0.600 F10800.000
G1 X137.838 Y62.281
G1 Z0.200
G1 E0.80000 F2100.000
;TYPE:Solid infill
;WIDTH:0.421171
G1 F1200.000
G1 X137.243 Y61.685 E0.02648
G1 X136.708 Y61.685 E0.01683
G1 X137.669 Y62.646 E0.04273
G1 X137.669 Y63.181 E0.01682
G1 X136.173 Y61.685 E0.06653
G1 X135.638 Y61.685 E0.01683
G1 X137.669 Y63.716 E0.09033
G1 X137.669 Y64.251 E0.01682
G1 X135.103 Y61.685 E0.11413
G1 X134.568 Y61.685 E0.01683
G1 X137.669 Y64.785 E0.13793
G1 X137.669 Y65.320 E0.01682
G1 X134.033 Y61.684 E0.16173
G1 X133.498 Y61.684 E0.01683
G1 X137.669 Y65.855 E0.18552
G1 X137.669 Y66.390 E0.01682
G1 X132.963 Y61.684 E0.20932
G1 X132.428 Y61.684 E0.01683
G1 X137.669 Y66.925 E0.23312
G1 X137.669 Y67.460 E0.01682
G1 X131.893 Y61.684 E0.25692
G1 X131.357 Y61.684 E0.01683
G1 X137.669 Y67.995 E0.28072
G1 X137.669 Y68.530 E0.01682
G1 X130.822 Y61.684 E0.30452
G1 X130.287 Y61.683 E0.01683
G1 X137.669 Y69.065 E0.32832
G1 X137.669 Y69.600 E0.01682
G1 X129.752 Y61.683 E0.35212
G1 X129.217 Y61.683 E0.01683
G1 X137.669 Y70.135 E0.37592
G1 X137.669 Y70.670 E0.01682
G1 X128.682 Y61.683 E0.39972
G1 X128.147 Y61.683 E0.01683
G1 X137.669 Y71.205 E0.42352
G1 X137.669 Y71.740 E0.01682
G1 X127.612 Y61.683 E0.44732
G1 X127.077 Y61.683 E0.01683
G1 X137.669 Y72.274 E0.47112
G1 X137.669 Y72.809 E0.01682
G1 X126.542 Y61.682 E0.49492
G1 X126.007 Y61.682 E0.01683
G1 X137.669 Y73.344 E0.51872
G1 X137.669 Y73.879 E0.01682
G1 X125.472 Y61.682 E0.54252
G1 X124.937 Y61.682 E0.01683
G1 X137.669 Y74.414 E0.56632
G1 X137.669 Y74.949 E0.01682
G1 X124.402 Y61.682 E0.59012
G1 X123.867 Y61.682 E0.01683
G1 X137.669 Y75.484 E0.61392
G1 X137.669 Y76.019 E0.01682
G1 X123.331 Y61.682 E0.63772
G1 X122.796 Y61.682 E0.01683
G1 X137.669 Y76.554 E0.66152
M73 P2 R59
M73 Q2 S59
G1 X137.669 Y77.089 E0.01682
G1 X122.261 Y61.681 E0.68531
M73 P2 R58
G1 X121.726 Y61.681 E0.01683
G1 X137.669 Y77.624 E0.70911
G1 X137.669 Y78.159 E0.01682
G1 X121.191 Y61.681 E0.73291
G1 X120.656 Y61.681 E0.01683
G1 X137.669 Y78.694 E0.75671
G1 X137.669 Y79.229 E0.01682
G1 X120.121 Y61.681 E0.78051
G1 X119.586 Y61.681 E0.01683
G1 X137.669 Y79.763 E0.80431
G1 X137.669 Y80.298 E0.01682
G1 X119.051 Y61.681 E0.82811
G1 X118.516 Y61.680 E0.01683
G1 X137.669 Y80.833 E0.85191
G1 X137.669 Y81.368 E0.01682
G1 X117.981 Y61.680 E0.87571
G1 X117.446 Y61.680 E0.01683
G1 X137.669 Y81.903 E0.89951
G1 X137.669 Y82.438 E0.01682
G1 X116.911 Y61.680 E0.92331
G1 X116.376 Y61.680 E0.01683
G1 X137.669 Y82.973 E0.94711
G1 X137.669 Y83.508 E0.01682
G1 X115.840 Y61.680 E0.97091
G1 X115.305 Y61.680 E0.01683
G1 X137.669 Y84.043 E0.99471
G1 X137.669 Y84.578 E0.01682
G1 X114.770 Y61.679 E1.01851
G1 X114.235 Y61.679 E0.01683
G1 X137.669 Y85.113 E1.04231
G1 X137.669 Y85.648 E0.01682
G1 X113.700 Y61.679 E1.06611
M73 Q2 S58
G1 X113.165 Y61.679 E0.01683
G1 X137.669 Y86.183 E1.08991
G1 X137.669 Y86.718 E0.01682
G1 X112.946 Y61.994 E1.09967
G1 X112.946 Y62.529 E0.01682
G1 X137.669 Y87.252 E1.09967
G1 X137.669 Y87.787 E0.01682
G1 X112.946 Y63.064 E1.09967
G1 X112.946 Y63.599 E0.01682
G1 X137.669 Y88.322 E1.09967
G1 X137.669 Y88.857 E0.01682
G1 X112.946 Y64.134 E1.09967
G1 X112.946 Y64.669 E0.01682
G1 X137.669 Y89.392 E1.09967
M73 P3 R58
M73 Q3 S58
G1 X137.669 Y89.927 E0.01682
G1 X112.946 Y65.204 E1.09967
G1 X112.946 Y65.739 E0.01682
G1 X137.669 Y90.462 E1.09967
G1 X137.669 Y90.997 E0.01682
G1 X112.946 Y66.274 E1.09967
G1 X112.946 Y66.809 E0.01682
G1 X137.669 Y91.532 E1.09967
G1 X137.669 Y92.067 E0.01682
G1 X112.946 Y67.344 E1.09967
G1 X112.946 Y67.879 E0.01682
G1 X137.669 Y92.602 E1.09967
G1 X137.669 Y93.137 E0.01682
G1 X112.946 Y68.414 E1.09967
G1 X112.946 Y68.949 E0.01682
G1 X137.669 Y93.672 E1.09967
G1 X137.669 Y94.207 E0.01682
G1 X112.946 Y69.483 E1.09967
G1 X112.946 Y70.018 E0.01682
G1 X137.669 Y94.741 E1.09967
G1 X137.669 Y95.276 E0.01682
G1 X112.946 Y70.553 E1.09967
G1 X112.946 Y71.088 E0.01682
G1 X137.669 Y95.811 E1.09967
G1 X137.669 Y96.346 E0.01682
G1 X112.946 Y71.623 E1.09967
G1 X112.946 Y72.158 E0.01682
G1 X137.669 Y96.881 E1.09967
M73 P3 R57
G1 X137.669 Y97.416 E0.01682
G1 X112.946 Y72.693 E1.09967
G1 X112.946 Y73.228 E0.01682
G1 X137.669 Y97.951 E1.09967
G1 X137.669 Y98.486 E0.01682
G1 X112.946 Y73.763 E1.09967
G1 X112.946 Y74.298 E0.01682
G1 X137.669 Y99.021 E1.09967
G1 X137.669 Y99.556 E0.01682
G1 X112.946 Y74.833 E1.09967
G1 X112.946 Y75.368 E0.01682
G1 X137.669 Y100.091 E1.09967
M73 P4 R57
M73 Q4 S58
G1 X137.669 Y100.626 E0.01682
G1 X136.376 Y99.333 E0.05750
G1 X136.376 Y98.878 E0.01431
G1 X135.921 Y98.878 E0.01431
G1 X112.946 Y75.903 E1.02194
G1 X112.946 Y76.438 E0.01682
G1 X135.386 Y98.878 E0.99814
G1 X134.851 Y98.878 E0.01682
G1 X112.946 Y76.972 E0.97435
G1 X112.946 Y77.507 E0.01682
G1 X134.316 Y98.878 E0.95056
G1 X133.781 Y98.878 E0.01682
G1 X112.946 Y78.042 E0.92676
G1 X112.946 Y78.577 E0.01682
G1 X133.247 Y98.878 E0.90297
G1 X132.712 Y98.878 E0.01682
G1 X112.946 Y79.112 E0.87918
G1 X112.946 Y79.647 E0.01682
M73 Q4 S57
G1 X132.177 Y98.878 E0.85538
G1 X131.642 Y98.878 E0.01682
G1 X112.946 Y80.182 E0.83159
G1 X112.946 Y80.717 E0.01682
G1 X131.107 Y98.878 E0.80780
G1 X130.572 Y98.878 E0.01682
G1 X112.946 Y81.252 E0.78400
G1 X112.946 Y81.787 E0.01682
G1 X130.037 Y98.878 E0.76021
G1 X129.502 Y98.878 E0.01682
G1 X112.946 Y82.322 E0.73642
G1 X112.946 Y82.857 E0.01682
G1 X128.967 Y98.878 E0.71262
G1 X128.432 Y98.878 E0.01682
G1 X112.946 Y83.392 E0.68883
G1 X112.946 Y83.927 E0.01682
G1 X127.897 Y98.878 E0.66504
G1 X127.362 Y98.878 E0.01682
G1 X112.946 Y84.461 E0.64124
G1 X112.946 Y84.996 E0.01682
G1 X126.827 Y98.878 E0.61745
G1 X126.293 Y98.878 E0.01682
G1 X112.946 Y85.531 E0.59366
G1 X112.946 Y86.066 E0.01682
G1 X125.758 Y98.878 E0.56986
G1 X125.223 Y98.878 E0.01682
G1 X112.946 Y86.601 E0.54607
G1 X112.946 Y87.136 E0.01682
G1 X124.688 Y98.878 E0.52228
G1 X124.153 Y98.878 E0.01682
G1 X112.946 Y87.671 E0.49848
G1 X112.946 Y88.206 E0.01682
G1 X123.618 Y98.878 E0.47469
G1 X123.083 Y98.878 E0.01682
G1 X112.946 Y88.741 E0.45090
G1 X112.946 Y89.276 E0.01682
G1 X122.548 Y98.878 E0.42710
G1 X122.013 Y98.878 E0.01682
G1 X112.946 Y89.811 E0.40331
G1 X112.946 Y90.346 E0.01682
G1 X121.478 Y98.878 E0.37952
G1 X120.943 Y98.878 E0.01682
G1 X112.946 Y90.881 E0.35572
G1 X112.946 Y91.416 E0.01682
G1 X120.408 Y98.878 E0.33193
G1 X119.873 Y98.878 E0.01682
G1 X112.946 Y91.950 E0.30814
G1 X112.946 Y92.485 E0.01682
G1 X119.338 Y98.878 E0.28434
M73 P5 R57
G1 X118.804 Y98.878 E0.01682
G1 X112.946 Y93.020 E0.26055
M73 Q5 S57
G1 X112.946 Y93.555 E0.01682
G1 X118.269 Y98.878 E0.23676
G1 X117.734 Y98.878 E0.01682
G1 X112.946 Y94.090 E0.21296
G1 X112.946 Y94.625 E0.01682
G1 X117.199 Y98.878 E0.18917
G1 X116.664 Y98.878 E0.01682
G1 X112.946 Y95.160 E0.16538
G1 X112.946 Y95.695 E0.01682
G1 X116.129 Y98.878 E0.14158
G1 X115.594 Y98.878 E0.01682
G1 X112.946 Y96.230 E0.11779
G1 X112.946 Y96.765 E0.01682
G1 X115.059 Y98.878 E0.09400
G1 X114.524 Y98.878 E0.01682
G1 X112.946 Y97.300 E0.07021
G1 X112.946 Y97.835 E0.01682
G1 X114.238 Y99.127 E0.05750
G1 X114.238 Y99.662 E0.01682
G1 X112.946 Y98.370 E0.05750
G1 X112.946 Y98.904 E0.01682
G1 X114.238 Y100.197 E0.05750
G1 X114.238 Y100.732 E0.01682
G1 X112.946 Y99.439 E0.05750
G1 X112.946 Y99.974 E0.01682
G1 X114.238 Y101.267 E0.05750
G1 X114.238 Y101.802 E0.01682
G1 X112.946 Y100.509 E0.05750
G1 X112.946 Y101.044 E0.01682
G1 X114.238 Y102.337 E0.05750
G1 X114.238 Y102.872 E0.01682
G1 X112.946 Y101.579 E0.05750
G1 X112.946 Y102.114 E0.01682
G1 X114.238 Y103.407 E0.05750
G1 X114.238 Y103.942 E0.01682
G1 X112.946 Y102.649 E0.05750
G1 X112.946 Y103.184 E0.01682
G1 X114.238 Y104.477 E0.05750
G1 X114.238 Y105.011 E0.01682
G1 X112.946 Y103.719 E0.05750
G1 X112.946 Y104.254 E0.01682
G1 X114.238 Y105.546 E0.05750
G1 X114.238 Y106.081 E0.01682
G1 X112.946 Y104.789 E0.05750
G1 X112.946 Y105.324 E0.01682
G1 X114.238 Y106.616 E0.05750
G1 X114.238 Y107.151 E0.01682
G1 X112.946 Y105.859 E0.05750
G1 X112.946 Y106.393 E0.01682
G1 X114.238 Y107.686 E0.05750
G1 X114.238 Y108.221 E0.01682
G1 X112.946 Y106.928 E0.05750
G1 X112.946 Y107.463 E0.01682
G1 X114.238 Y108.756 E0.05750
G1 X114.238 Y109.291 E0.01682
G1 X112.946 Y107.998 E0.05750
G1 X112.946 Y108.533 E0.01682
G1 X114.238 Y109.826 E0.05750
G1 X114.238 Y110.361 E0.01682
G1 X112.946 Y109.068 E0.05750
G1 X112.946 Y109.603 E0.01682
G1 X114.238 Y110.896 E0.05750
G1 X114.238 Y111.431 E0.01682
G1 X112.946 Y110.138 E0.05750
G1 X112.946 Y110.673 E0.01682
G1 X114.238 Y111.966 E0.05750
G1 X114.238 Y112.500 E0.01682
G1 X112.946 Y111.208 E0.05750
G1 X112.946 Y111.743 E0.01682
G1 X114.238 Y113.035 E0.05750
G1 X114.238 Y113.570 E0.01682
G1 X112.946 Y112.278 E0.05750
G1 X112.946 Y112.813 E0.01682
G1 X114.238 Y114.105 E0.05750
G1 X114.238 Y114.640 E0.01682
G1 X112.946 Y113.348 E0.05750
G1 X112.946 Y113.882 E0.01682
G1 X114.238 Y115.175 E0.05750
G1 X114.238 Y115.710 E0.01682
G1 X112.946 Y114.417 E0.05750
G1 X112.946 Y114.952 E0.01682
G1 X114.238 Y116.245 E0.05750
G1 X114.238 Y116.780 E0.01682
G1 X112.946 Y115.487 E0.05750
G1 X112.946 Y116.022 E0.01682
G1 X114.238 Y117.315 E0.05750
G1 X114.238 Y117.850 E0.01682
G1 X112.946 Y116.557 E0.05750
G1 X112.946 Y117.092 E0.01682
G1 X114.238 Y118.385 E0.05750
G1 X114.238 Y118.920 E0.01682
G1 X112.946 Y117.627 E0.05750
G1 X112.946 Y118.162 E0.01682
G1 X114.238 Y119.455 E0.05750
G1 X114.238 Y119.989 E0.01682
G1 X112.946 Y118.697 E0.05750
G1 X112.946 Y119.232 E0.01682
G1 X114.238 Y120.524 E0.05750
G1 X114.238 Y121.059 E0.01682
G1 X112.946 Y119.767 E0.05750
G1 X112.946 Y120.302 E0.01682
G1 X114.238 Y121.594 E0.05750
G1 X114.238 Y122.129 E0.01682
G1 X112.946 Y120.837 E0.05750
G1 X112.946 Y121.371 E0.01682
G1 X114.238 Y122.664 E0.05750
G1 X114.238 Y123.199 E0.01682
G1 X112.946 Y121.906 E0.05750
G1 X112.946 Y122.441 E0.01682
G1 X114.238 Y123.734 E0.05750
G1 X114.238 Y124.269 E0.01682
G1 X112.946 Y122.976 E0.05750
G1 X112.946 Y123.511 E0.01682
G1 X114.238 Y124.804 E0.05750
G1 X114.238 Y125.339 E0.01682
G1 X112.946 Y124.046 E0.05750
G1 X112.946 Y124.581 E0.01682
G1 X114.238 Y125.874 E0.05750
G1 X114.238 Y126.409 E0.01682
G1 X112.946 Y125.116 E0.05750
G1 X112.946 Y125.651 E0.01682
G1 X114.238 Y126.944 E0.05750
G1 X114.238 Y127.478 E0.01682
G1 X112.946 Y126.186 E0.05750
G1 X112.946 Y126.721 E0.01682
G1 X114.238 Y128.013 E0.05750
G1 X114.238 Y128.548 E0.01682
